src/images/bw-icons/osx.svg

<?xml version="1.0" encoding="UTF-8" standalone="no"?>
<svg width="46px" height="46px" viewBox="0 0 46 46" version="1.1" xmlns="http://www.w3.org/2000/svg" xmlns:xlink="http://www.w3.org/1999/xlink" xmlns:sketch="http://www.bohemiancoding.com/sketch/ns">
    <!-- Generator: Sketch 3.3.2 (12043) - http://www.bohemiancoding.com/sketch -->
    <title>osx</title>
    <desc>Created with Sketch.</desc>
    <defs></defs>
    <g id="Page-1" stroke="none" stroke-width="1" fill="none" fill-rule="evenodd" sketch:type="MSPage">
        <g id="osx" sketch:type="MSArtboardGroup" fill="#B3B3B3">
            <g id="icon-mac-os-x" sketch:type="MSLayerGroup">
                <g id="Page-1" sketch:type="MSShapeGroup">
                    <g id="Artboard-1">
                        <path d="M22.5,45 C34.9264068,45 45,34.9264068 45,22.5 C45,10.0735931 34.9264068,0 22.5,0 C10.0735931,0 0,10.0735931 0,22.5 C0,34.9264068 10.0735931,45 22.5,45 L22.5,45 Z M20.4093608,22.1395449 L11.4700755,35.3682453 L15.290899,35.3682453 L22.427909,24.7348212 L29.3486459,35.3682453 L33.5299245,35.3682453 L24.4825028,22.1395449 L32.9892419,9.63175471 L29.1684184,9.63175471 L22.4639545,19.6884506 L16.0478546,9.63175471 L11.938667,9.63175471 L20.4093608,22.1395449 L20.4093608,22.1395449 Z" id="Oval-1"></path>
                    </g>
                </g>
            </g>
        </g>
    </g>
</svg>

<svg width="46" height="46" viewBox="0 0 46 46" xmlns="http://www.w3.org/2000/svg"><title>osx</title><path d="M22.5 45C34.926 45 45 34.926 45 22.5S34.926 0 22.5 0 0 10.074 0 22.5 10.074 45 22.5 45zm-2.09-22.86l-8.94 13.228h3.82l7.138-10.633 6.92 10.633h4.182L24.483 22.14l8.506-12.508h-3.82l-6.705 10.056-6.416-10.056h-4.11L20.41 22.14z" fill="#B3B3B3" fill-rule="evenodd"/></svg>
